public/images/placeofinterrests/atlanta.svg

<?xml version="1.0" encoding="UTF-8" standalone="no"?>
<svg width="65px" height="56px" viewBox="0 0 65 56" version="1.1" xmlns="http://www.w3.org/2000/svg" xmlns:xlink="http://www.w3.org/1999/xlink">
    <!-- Generator: Sketch 42 (36781) - http://www.bohemiancoding.com/sketch -->
    <title>Atlanta</title>
    <desc>Created with Sketch.</desc>
    <defs></defs>
    <g id="Page-1" stroke="none" stroke-width="1" fill="none" fill-rule="evenodd">
        <g id="Atlanta">
            <polygon id="Path-3" fill="#FFFFFF" points="6.95918438 0.131305366 0 55.8047804 64.996156 51.9969248 56.3300018 4.33307706"></polygon>
            <path d="M19.5587067,23.1340156 L17.5396989,29.1939844 L21.5807223,29.1939844 L19.5587067,23.1340156 Z M17.7437302,17.2300156 L17.8877302,17.2780156 L21.2237302,17.2780156 L21.3677302,17.2300156 L21.3857145,17.2780156 L21.4337145,17.2780156 L21.4337145,17.4190078 L28.1867067,37.69 L28.2377145,37.69 L28.2377145,37.84 L28.2857145,37.987 L28.2377145,38.002 L28.2377145,38.05 L28.0907067,38.05 L27.9437302,38.098 L27.9287223,38.05 L24.6916989,38.05 L24.5476989,38.098 L24.5327223,38.05 L24.4817145,38.05 L24.4817145,37.897 L22.8317302,32.9500161 L16.2887223,32.9500161 L14.6417145,37.888 L14.6417145,38.05 L14.5907067,38.05 L14.5757302,38.098 L14.4317306,38.05 L11.1857145,38.05 L11.1677306,38.098 L11.0237306,38.05 L10.8737145,38.05 L10.8737145,37.999 L10.8257145,37.984 L10.8737145,37.831 L10.8737145,37.69 L10.9217145,37.69 L17.6777145,17.428 L17.6777145,17.2780156 L17.7287223,17.2780156 L17.7437302,17.2300156 Z M25.6725715,17.204 L25.6725715,20.972 L30.7725715,20.972 L30.7725715,37.976 L34.5285715,37.976 L34.5285715,20.972 L39.6405715,20.972 L39.6405715,17.204 L25.6725715,17.204 Z M41.8554285,17.228 L41.8554285,38 L54.1314285,38 L54.1314285,34.244 L45.6234285,34.244 L45.6234285,17.228 L41.8554285,17.228 Z" id="ATL" fill="#18252D"></path>
        </g>
    </g>
</svg>

<svg width="65" height="56" viewBox="0 0 65 56" xmlns="http://www.w3.org/2000/svg"><title>Atlanta</title><g fill="none" fill-rule="evenodd"><path fill="#FFF" d="M6.96.131L0 55.805l64.996-3.808L56.33 4.333z"/><path d="M19.559 23.134l-2.02 6.06h4.042l-2.022-6.06zm-1.815-5.904l.144.048h3.336l.144-.048.018.048h.048v.141l6.753 20.271h.05v.15l.049.147-.048.015v.048h-.147l-.147.048-.015-.048h-3.237l-.144.048-.015-.048h-.051v-.153l-1.65-4.947h-6.543l-1.647 4.938v.162h-.051l-.015.048-.144-.048h-3.246l-.018.048-.144-.048h-.15v-.051l-.048-.015.048-.153v-.141h.048l6.756-20.262v-.15h.05l.016-.048zm7.929-.026v3.768h5.1v17.004h3.756V20.972h5.112v-3.768H25.673zm16.182.024V38h12.276v-3.756h-8.508V17.228h-3.768z" fill="#18252D"/></g></svg>
